!! J.S. Bach "Fuga" from Sonata No. 2, for solo violin, BWV 1003.
!! From 'Neue Ausgabe Saemtlicher Werke' Serie VI: Kammermusikwerke,
!! Band 1 ('Werke fuer Violine') Baerenreiter Kassel (Basel) 1958; pp.21-25
!! This file has been error-checked using the double-entry method.
!! NOTE:  This 'monophonic' work has been recoded here as a four-part work.
!! NOTE:  A considerable degree of latitude has been exercised in the
!!        assignment of parts and voices.
**kern	**kern	**kern	**kern
*M2/4	*M2/4	*M2/4	*M2/4
=1	=1	=1	=1
2r	2r	8r	2r
.	.	16ee	.
.	.	16dd#	.
.	.	8ee	.
.	.	8e	.
=2	=2	=2	=2
2r	2r	8a	2r
.	.	8cc	.
.	.	8b	.
.	.	8dd	.
=3	=3	=3	=3
2r	8r	8cc	2r
.	16a	8r	.
.	16g#	.	.
.	8a	4r	.
.	8A	.	.
=4	=4	=4	=4
2r	8e	8r	2r
.	8gn	8ee	.
.	8f#	8ee	.
.	8a	8dd#	.
=5	=5	=5	=5
2r	4g#	8ee	2r
.	.	16b	.
.	.	16a	.
.	4gn	8b	.
.	.	8cc#	.
=6	=6	=6	=6
2r	4f#	8dd	2r
.	.	16a	.
.	.	16g#	.
.	4fn	8a	.
.	.	8b	.
=7	=7	=7	=7
2r	4e	4cc	8r
.	.	.	16aa
.	.	.	16gg#
.	8r	4r	8aa
.	8f#	.	8a
=8	=8	=8	=8
2r	4g	4b	8ee
.	.	.	8ggn
.	4d#	4b	8ff#
.	.	.	8aa
=9	=9	=9	=9
2r	4e	8b	4gg
.	.	16ee	.
.	.	16dd#	.
.	8r	8ee	8r
.	8e	8b	8gg
=10	=10	=10	=10
2r	4a	4cc#	8gg
.	.	.	16aa
.	.	.	16gg
.	8r	8r	8aa
.	8a	8cc#	8ee
=11	=11	=11	=11
2r	4d	8a	4ff
.	.	16dd	.
.	.	16cc#	.
.	8r	8dd	8r
.	8d	8a	8ff
=12	=12	=12	=12
2r	4g	4b	8ff
.	.	.	16gg
.	.	.	16ff
.	8r	4r	8gg
.	8g	.	8dd
=13	=13	=13	=13
16c	16g	16cc	16ee
8.r	8.r	8.r	16ff
.	.	.	16ee
.	.	.	16dd
4r	4r	4r	16cc
.	.	.	16b
.	.	.	16a
.	.	.	16g
=14	=14	=14	=14
2r	8c	2r	8f#
.	8r	.	16dd
.	.	.	16cc
.	8r	.	8dd
.	8c	.	8f#
=15	=15	=15	=15
2r	8B	2r	16g#
.	.	.	{16a
.	8r	.	16b
.	.	.	16cc
.	8r	.	8dd}
.	8A	.	8fn
=16	=16	=16	=16
2r	8G#	2r	8e
.	4.r	.	16dd
.	.	.	16cc
.	.	.	16dd
.	.	.	16ff
.	.	.	16ee
.	.	.	16dd
=17	=17	=17	=17
2r	16A	16e	16cc
.	8.r	8.r	16dd
.	.	.	16cc
.	.	.	16dd
.	4r	4f	8.dd
.	.	.	32cc
.	.	.	32dd
=18	=18	=18	=18
2r	2r	8e	8ee
.	.	16b	8r
.	.	16a	.
.	.	8b	4gg
.	.	8cc#	.
=19	=19	=19	=19
2r	2r	8dd	4ff#
.	.	16a	.
.	.	16g	.
.	.	8a	4ffn
.	.	8b	.
=20	=20	=20	=20
2r	2r	8cc	4ee
.	.	16cc	.
.	.	16b	.
.	.	8cc	4aa
.	.	8dd	.
=21	=21	=21	=21
2r	2r	8ee	4gg#
.	.	16b	.
.	.	16a	.
.	.	8b	4ggn
.	.	8cc#	.
=22	=22	=22	=22
2r	2r	8dd	4ff#
.	.	16dd	.
.	.	16cc#	.
.	.	8dd	4bb
.	.	8ee	.
=23	=23	=23	=23
2r	2r	8ff#	4aa#
.	.	16cc#	.
.	.	16b	.
.	.	8cc#	4aan
.	.	8dd#	.
=24	=24	=24	=24
2r	2r	4ee	8gg#
.	.	.	16ggn
.	.	.	16ff#
.	.	4ee	8gg
.	.	.	8aa
=25	=25	=25	=25
2r	2r	4dd#	8bb
.	.	.	16ff#
.	.	.	16ee
.	.	4ddn	8ff#
.	.	.	8gg#
=26	=26	=26	=26
2r	2r	4cc	8aa
.	.	.	16aa
.	.	.	16gg#
.	.	4ffn	8aa
.	.	.	8bb
=27	=27	=27	=27
2r	2r	4ee	8ccc
.	.	.	16ggn
.	.	.	16ff#
.	.	4ee-	8gg
.	.	.	8aa
=28	=28	=28	=28
2r	2r	4dd	8bb
.	.	.	16bb
.	.	.	16aa
.	.	4gg	8bb
.	.	.	8ccc
=29	=29	=29	=29
2r	2r	4ff#	8ddd
.	.	.	16aa
.	.	.	16gg#
.	.	4ffn	8aa
.	.	.	8bb
=30	=30	=30	=30
2r	2r	8ee	8ccc
.	.	16aa	4.r
.	.	16gg#	.
.	.	8aa	.
.	.	8a	.
=31	=31	=31	=31
2r	2r	8d	2r
.	.	{16ccc	.
.	.	16aa	.
.	.	16ggn	.
.	.	16ff#	.
.	.	16ee	.
.	.	16dd}	.
=32	=32	=32	=32
2r	8g	8dd	8bb
.	4.r	16gg	4.r
.	.	16ff#	.
.	.	8gg	.
.	.	8g	.
=33	=33	=33	=33
2r	2r	8c	2r
.	.	{16bb-	.
.	.	16gg	.
.	.	16ffn	.
.	.	16ee	.
.	.	16dd	.
.	.	16cc}	.
=34	=34	=34	=34
2r	8f	8cc	8aa
.	4.r	8r	{16aa
.	.	.	16ff}
.	.	{16ee	4r
.	.	16dd	.
.	.	16cc#	.
.	.	16b}	.
=35	=35	=35	=35
2r	8e	8cc#	8gg
.	4.r	8r	{16gg
.	.	.	16ee}
.	.	{16dd	4r
.	.	16cc#	.
.	.	16b	.
.	.	16a}	.
=36	=36	=36	=36
2r	16d	16dd	16ff
.	8.r	8.r	16gg
.	.	.	16ff
.	.	.	16ee
.	4r	16dd	4r
.	.	16ccn	.
.	.	16b-	.
.	.	16a	.
=37	=37	=37	=37
2r	8d	8b-	8ff
.	4.r	8r	{16bb-
.	.	.	16ff}
.	.	{16ee	4r
.	.	16dd	.
.	.	16cc	.
.	.	16bn}	.
=38	=38	=38	=38
2r	8d	8b	8gg#
.	8r	16cc	16aa
.	.	16b	16gg#
.	8r	8cc	8aa
.	8d#	8cc	8aa
=39	=39	=39	=39
8r	8e	8b	8aa
16ee	8r	8r	8r
16dd#	.	.	.
8ee	8r	8r	8r
8e	8r	8ddn	8gg#
=40	=40	=40	=40
8A	8e	8cc#	8ggn
8c#	8r	8r	8r
8B	8a	8dd	8ff
8d	8r	8r	8r
=41	=41	=41	=41
8c#	8g	8a	8ee
8r	16g	8r	8r
.	16f	.	.
8r	8g	8r	8r
8c#	8e	8a	8ee
=42	=42	=42	=42
8d	8f	8a	8ee
8r	8r	8r	16dd
.	.	.	16cc#
8r	8r	8r	8dd
8d	8f	8r	8b-
=43	=43	=43	=43
8d	8r	8r	8g#
8B	8g#	8dd	8ff
8c	8a	8ccn	8ee
8d	8r	8r	8dd
=44	=44	=44	=44
8e	2r	2r	8.cc
8d	.	.	.
.	.	.	16dd
4e	.	.	8.b
.	.	.	16a
=45	=45	=45	=45
16A	2r	2r	16a
8.r	.	.	16ee
.	.	.	16cc
.	.	.	16a
4r	.	.	{16g#
.	.	.	16a}
.	.	.	{16a
.	.	.	16a}
=46	=46	=46	=46
8r	2r	2r	{16e
.	.	.	16a}
8d	.	.	{16f
.	.	.	16a}
8c	.	.	{16e
.	.	.	16a}
8B	.	.	{16d
.	.	.	16a}
=47	=47	=47	=47
16A	16e	2r	16a
8.r	8.r	.	16ee
.	.	.	16cc
.	.	.	16a
4r	4r	.	{16g#
.	.	.	16a}
.	.	.	{16a
.	.	.	16a}
=48	=48	=48	=48
8r	2r	2r	{16e
.	.	.	16a}
8d	.	.	{16f
.	.	.	16a}
8c	.	.	{16e
.	.	.	16a}
8B	.	.	{16d
.	.	.	16a}
=49	=49	=49	=49
16A	2r	2r	16e
8.r	.	.	{16a
.	.	.	16g#
.	.	.	16a
4r	.	.	16b
.	.	.	16a
.	.	.	16g#
.	.	.	16a}
=50	=50	=50	=50
16B	2r	2r	16d
8.r	.	.	{16a
.	.	.	16g#
.	.	.	16a
4r	.	.	16b
.	.	.	16a
.	.	.	16g#
.	.	.	16a}
=51	=51	=51	=51
16c	2r	2r	16e
8.r	.	.	16ee
.	.	.	16cc
.	.	.	16a
4r	.	.	{16g#
.	.	.	16a}
.	.	.	{16a
.	.	.	16a}
=52	=52	=52	=52
2r	2r	2r	16d#
.	.	.	16ff#
.	.	.	16cc
.	.	.	16a
.	.	.	{16g#
.	.	.	16a}
.	.	.	{16d#
.	.	.	16a}
=53	=53	=53	=53
2r	2r	2r	16e
.	.	.	16bb
.	.	.	16gg
.	.	.	16ee
.	.	.	{16dd#
.	.	.	16ee}
.	.	.	{16ee
.	.	.	16ee}
=54	=54	=54	=54
2r	2r	8r	{16b
.	.	.	16ee}
.	.	8a	{16cc
.	.	.	16ee}
.	.	8g	{16b
.	.	.	16ee}
.	.	8f#	{16a
.	.	.	16ee}
=55	=55	=55	=55
16e	2r	16b	16ee
8.r	.	8.r	16bb
.	.	.	16gg
.	.	.	16ee
4r	.	4r	{16dd#
.	.	.	16ee}
.	.	.	{16ee
.	.	.	16ee}
=56	=56	=56	=56
2r	2r	8r	{16b
.	.	.	16ee}
.	.	8a	{16cc
.	.	.	16ee}
.	.	8g	{16b
.	.	.	16ee}
.	.	8f#	{16a
.	.	.	16ee}
=57	=57	=57	=57
2r	2r	16e	16b
.	.	8.r	{16ee
.	.	.	16dd#
.	.	.	16ee
.	.	4r	16ff#
.	.	.	16ee
.	.	.	16dd#
.	.	.	16ee}
=58	=58	=58	=58
2r	2r	16f#	16a
.	.	8.r	{16ee
.	.	.	16dd#
.	.	.	16ee
.	.	4r	16ff#
.	.	.	16ee
.	.	.	16dd#
.	.	.	16ee}
=59	=59	=59	=59
2r	2r	16g	16b
.	.	8.r	16bb
.	.	.	16gg
.	.	.	16ee
.	.	4r	{16dd#
.	.	.	16ee}
.	.	.	{16ee
.	.	.	16ee}
=60	=60	=60	=60
2r	2r	8a	{16cc
.	.	.	16ee}
.	.	8g	{16b
.	.	.	16ee}
.	.	8f#	{16a
.	.	.	16aa}
.	.	8e	{16cc
.	.	.	16aa}
=61	=61	=61	=61
2r	2r	8d#	8b
.	.	8r	16bb
.	.	.	16aa
.	.	8r	8bb
.	.	8a	8b
=62	=62	=62	=62
2r	2r	8g	8ee
.	.	8r	8gg
.	.	8b	8ff#
.	.	8r	8aa
=63	=63	=63	=63
8e	2r	8b	8gg
16ee	.	8r	8r
16dd#	.	.	.
8ee	.	8r	8r
8e	.	8b	8gg
=64	=64	=64	=64
8a	2r	2r	4ff#
8cc	.	.	.
8b	.	.	4ffn
8ddn	.	.	.
=65	=65	=65	=65
8cc	2r	2r	8ee
8r	.	.	16aa
.	.	.	16gg#
8r	.	.	{16aa
.	.	.	16ff#}
8a	.	.	{16ggn
.	.	.	16ee}
=66	=66	=66	=66
8a	2r	2r	8dd#
{16b	.	.	8r
16a}	.	.	.
{16b	.	.	8r
16g}	.	.	.
{16a	.	.	8ff#
16f#}	.	.	.
=67	=67	=67	=67
8g	2r	2r	8b
8r	.	.	16ee
.	.	.	16dd#
8r	.	.	{16ee
.	.	.	16cc}
8g#	.	.	{16ddn
.	.	.	16b}
=68	=68	=68	=68
{16a	2r	2r	8cc
16e}	.	.	.
{16gn	.	.	8b
16e}	.	.	.
{16f#	.	.	8a
16e	.	.	.
16d#}	.	.	8r
16e	.	.	.
=69	=69	=69	=69
8d#	2r	2r	8a
8r	.	.	16ff#
.	.	.	16ee
8r	.	.	8ff#
8d#	.	.	8f#
=70	=70	=70	=70
8e	8g	2r	8b
8r	8r	.	8dd
8A	8g	.	8cc#
8r	8r	.	8ee
=71	=71	=71	=71
8A	8f#	4r	8dd#
8r	8r	.	8ff#
8G	8e	8b	8bb
8A	8e	8ccn	8aa
=72	=72	=72	=72
8B	8e	8b	8.gg
8r	8r	8r	.
.	.	.	16aa
8d#	4r	8a	8.ff#T
8r	.	8r	.
.	.	.	16ee
=73	=73	=73	=73
8e	2r	4r	8ee
16g	.	.	4.r
16f#	.	.	.
8g	.	4ee	.
8a	.	.	.
=74	=74	=74	=74
8b	2r	4dd#	2r
16f#	.	.	.
16e	.	.	.
8f#	.	4ddn	.
8g#	.	.	.
=75	=75	=75	=75
4a	2r	8cc#	2r
.	.	16ccn	.
.	.	16b	.
4a	.	8cc	.
.	.	8dd	.
=76	=76	=76	=76
4g#	2r	8ee	2r
.	.	16b	.
.	.	16a	.
4gn	.	8b	.
.	.	8cc#	.
=77	=77	=77	=77
8f#	2r	4dd	2r
16fn	.	.	.
16e	.	.	.
8f#	.	4dd	.
8g	.	.	.
=78	=78	=78	=78
8a	2r	4cc#	2r
16e	.	.	.
16d	.	.	.
8e	.	4ccn	.
8f#	.	.	.
=79	=79	=79	=79
4g	2r	8b	2r
.	.	16b	.
.	.	16a	.
4g	.	8b	.
.	.	8cc	.
=80	=80	=80	=80
4f#	2r	8dd	2r
.	.	16a	.
.	.	16g	.
4fn	.	8a	.
.	.	8b	.
=81	=81	=81	=81
8e	2r	8cc	8r
8r	.	4.r	16gg
.	.	.	16ff
8r	.	.	8gg
8c	.	.	8g
=82	=82	=82	=82
8A	8g	2r	8cc
8r	8r	.	8ee
8B	8g	.	8dd
8r	8r	.	8ff
=83	=83	=83	=83
8c	8g	8cc	8ee
8r	8r	8r	8gg
8d	4r	8b	8ff
8r	.	8r	8aa
=84	=84	=84	=84
8e	2r	8cc	8gg
4.r	.	4.r	{16cc
.	.	.	16b
.	.	.	16cc
.	.	.	16dd
.	.	.	16ee
.	.	.	32ff
.	.	.	32gg}
=85	=85	=85	=85
8f	2r	8cc	8aa
4.r	.	16ff	4.r
.	.	16ee	.
.	.	8ff	.
.	.	8cc	.
=86	=86	=86	=86
8f#	2r	8dd	8aa
4.r	.	4.r	{16dd
.	.	.	16ee
.	.	.	16ff#
.	.	.	16gg
.	.	.	16aa
.	.	.	32bb
.	.	.	32ccc}
=87	=87	=87	=87
8g	2r	8dd	8bb
4.r	.	16gg	4.r
.	.	16ff#	.
.	.	8gg	.
.	.	8g	.
=88	=88	=88	=88
2r	2r	8cc	8r
.	.	8ee	8ccc
.	.	8dd	8ccc
.	.	8ffn	8bb
=89	=89	=89	=89
2r	2r	8ee	8ccc
.	.	8r	16ccc
.	.	.	16bb
.	.	4r	16ccc
.	.	.	16gg
.	.	.	16ee
.	.	.	16cc
=90	=90	=90	=90
2r	2r	8r	8gg
.	.	8gg	8bb
.	.	8gg	8aa
.	.	8ff#	8ccc
=91	=91	=91	=91
8r	4.r	8gg	8bb
16g	.	8r	8r
16f#	.	.	.
8g	.	8r	8r
8G	8g	8dd	8bb
=92	=92	=92	=92
8c	8g	8ee	8ccc
8e	8r	8r	8r
8d	4r	8ff	8bb
8fn	.	8r	8r
=93	=93	=93	=93
8e	2r	8cc	8bb-
8g	.	8r	8r
8f	.	8cc	8aa
8a	.	8r	8r
=94	=94	=94	=94
8g	2r	16b	2r
.	.	16cc	.
4.r	.	16dd	.
.	.	16ee	.
.	.	16ff	.
.	.	16gg	.
.	.	16aa	.
.	.	16ff	.
=95	=95	=95	=95
8e	2r	8cc	16gg
.	.	.	16aa
4.r	.	4.r	16gg
.	.	.	16ff
.	.	.	16ee
.	.	.	16dd
.	.	.	16cc
.	.	.	16ee
=96	=96	=96	=96
8f	2r	2r	16a
.	.	.	16b
4.r	.	.	16cc
.	.	.	16dd
.	.	.	16ee
.	.	.	16ff
.	.	.	16gg
.	.	.	16ee
=97	=97	=97	=97
8d	2r	8a	16ff
.	.	.	16gg
4.r	.	4.r	16ff
.	.	.	16ee
.	.	.	16dd
.	.	.	16cc
.	.	.	16b
.	.	.	16dd
=98	=98	=98	=98
8B	2r	2r	16g
.	.	.	16a
4.r	.	.	16b
.	.	.	16cc
.	.	.	16dd
.	.	.	16ee
.	.	.	16ff
.	.	.	16dd
=99	=99	=99	=99
8c	8g	8cc	8ee
16B-	8r	8r	8r
16A	.	.	.
8B-	8r	8r	8r
8G	8g	8cc	8ee
=100	=100	=100	=100
8A	8f	8cc	8ee
4.r	4.r	4.r	16aa
.	.	.	16gg
.	.	.	16ff
.	.	.	16ee
.	.	.	16dd
.	.	.	16ff
=101	=101	=101	=101
16G	16f	2r	16b
8.r	8.r	.	16dd
.	.	.	16cc
.	.	.	16b
4r	4r	.	16a
.	.	.	16g
.	.	.	16f
.	.	.	16dd
=102	=102	=102	=102
2r	2r	2r	16e
.	.	.	16cc
.	.	.	16d
.	.	.	16c
.	.	.	16G
.	.	.	16d
.	.	.	16cc
.	.	.	16b
=103	=103	=103	=103
8c	2r	8e	8cc
8r	.	8r	16ee
.	.	.	16dd
8r	.	4r	8ee
8c	.	.	8e
=104	=104	=104	=104
8c	2r	8f#	16a
.	.	.	16b
8r	.	8r	16cc
.	.	.	16a
8B	.	8g#	16b
.	.	.	16cc
8r	.	8r	16dd
.	.	.	16b
=105	=105	=105	=105
8A	2r	8a	16cc
.	.	.	16dd
8r	.	8r	16ee
.	.	.	16cc
8B	.	8a	16dd
.	.	.	16ee
8r	.	8r	16ff
.	.	.	16dd
=106	=106	=106	=106
8c	8e	8a	8ee
4.r	4.r	4.r	16aa
.	.	.	16gg#
.	.	.	{16aa
.	.	.	16ff#}
.	.	.	{16ggn
.	.	.	16ee}
=107	=107	=107	=107
8c	8d	8a	8ff#
16d	4.r	4.r	4.r
16c	.	.	.
{16d	.	.	.
16B}	.	.	.
{16c	.	.	.
16A}	.	.	.
=108	=108	=108	=108
8B	8e	8dd	8gg#
4.r	4.r	16ee	4.r
.	.	16dd	.
.	.	{16ee	.
.	.	16cc}	.
.	.	{16dd	.
.	.	16b}	.
=109	=109	=109	=109
8A	8e	8cc	8aa
4.r	16a	4.r	4.r
.	16g	.	.
.	{16a	.	.
.	16f}	.	.
.	{16g	.	.
.	16e}	.	.
=110	=110	=110	=110
8A	8f	16dd	8bb
.	.	16ee	.
4.r	4.r	16ff	4.r
.	.	16ee	.
.	.	16dd	.
.	.	16cc	.
.	.	16b	.
.	.	16a	.
=111	=111	=111	=111
2r	2r	16g#	2r
.	.	16b	.
.	.	16ee	.
.	.	16gg#	.
.	.	16bb	.
.	.	16ccc	.
.	.	16ddd	.
.	.	16bb	.
=112	=112	=112	=112
2r	2r	16ccc	2r
.	.	16aa	.
.	.	16ff	.
.	.	16ee	.
.	.	16ff	.
.	.	16cc	.
.	.	16a	.
.	.	16cc	.
=113	=113	=113	=113
2r	2r	16bb	2r
.	.	16ff	.
.	.	16dd	.
.	.	16cc	.
.	.	16dd	.
.	.	16b	.
.	.	16g#	.
.	.	16b	.
=114	=114	=114	=114
2r	2r	16cc	2r
.	.	16ee	.
.	.	16aa	.
.	.	16gg#	.
.	.	16aa	.
.	.	16ee	.
.	.	16cc	.
.	.	16ee	.
=115	=115	=115	=115
2r	2r	16ggn	2r
.	.	16ee	.
.	.	16cc#	.
.	.	16b	.
.	.	16cc#	.
.	.	16a	.
.	.	16e	.
.	.	16g	.
=116	=116	=116	=116
2r	2r	16f	2r
.	.	16dd	.
.	.	16a	.
.	.	16g	.
.	.	16a	.
.	.	16f	.
.	.	16d	.
.	.	16f	.
=117	=117	=117	=117
2r	2r	16B	2r
.	.	16d	.
.	.	16g#	.
.	.	16f#	.
.	.	16g#	.
.	.	16b	.
.	.	16dd	.
.	.	16cc	.
=118	=118	=118	=118
2r	2r	16dd	2r
.	.	16ff	.
.	.	16bb	.
.	.	16aa	.
.	.	16bb	.
.	.	16ff	.
.	.	16ee	.
.	.	16dd	.
=119	=119	=119	=119
2r	2r	16cc	2r
.	.	16b	.
.	.	16a	.
.	.	16g#	.
.	.	16a	.
.	.	16cc	.
.	.	16ff	.
.	.	16cc	.
=120	=120	=120	=120
2r	2r	16b	2r
.	.	16a	.
.	.	16gn	.
.	.	16f#	.
.	.	16g	.
.	.	16b	.
.	.	16ee	.
.	.	16b	.
=121	=121	=121	=121
2r	2r	16a	2r
.	.	16g	.
.	.	16fn	.
.	.	16e	.
.	.	16f	.
.	.	16a	.
.	.	16dd	.
.	.	16a	.
=122	=122	=122	=122
2r	2r	16g#	2r
.	.	16a	.
.	.	16b	.
.	.	16cc	.
.	.	16dd	.
.	.	16ee	.
.	.	16ff	.
.	.	16ee	.
=123	=123	=123	=123
2r	2r	16ff	2r
.	.	16ee	.
.	.	16dd	.
.	.	16cc#	.
.	.	16dd	.
.	.	16gg#	.
.	.	16aa	.
.	.	16bb	.
=124	=124	=124	=124
2r	2r	16ccn	2r
.	.	16b	.
.	.	16a	.
.	.	16cc	.
.	.	16f	.
.	.	16ee	.
.	.	16aa	.
.	.	16dd	.
=125	=125	=125	=125
2r	2r	8ee	8gg#
.	.	16e	8r
.	.	16f	.
.	.	8e	8r
.	.	8ee	8ggn
=126	=126	=126	=126
2r	2r	{8a	4cc
.	.	8f}	.
.	.	{8g	4cc#
.	.	8e}	.
=127	=127	=127	=127
2r	2r	8f	8dd
.	.	16d	8r
.	.	16e	.
.	.	8d	8r
.	.	8dd	8ff
=128	=128	=128	=128
2r	2r	{8g	4b
.	.	8e}	.
.	.	{8f	[4dd
.	.	8d}	.
=129	=129	=129	=129
2r	2r	4e	8dd]
.	.	.	16cc
.	.	.	16dd
.	.	8r	8cc
.	.	[8ee	8ccc
=130	=130	=130	=130
2r	2r	8ee]	4ff
.	.	[8dd	.
.	.	8dd]	4ee
.	.	8cc	.
=131	=131	=131	=131
2r	4.r	8f	8dd
.	.	8g	16cc
.	.	.	16b
.	.	8a	8cc
.	8cc	8f	8aa
=132	=132	=132	=132
4r	8cc	8g	8ee
.	8r	4.r	16dd
.	.	.	16cc
8G	8f	.	8dd
8r	8d	.	8b
=133	=133	=133	=133
8c	8e	2r	8cc
4.r	4.r	.	8ee
.	.	.	8aa
.	.	.	8cc
=134	=134	=134	=134
2r	8d#	2r	8b
.	8r	.	16aa
.	.	.	16gg
.	8r	.	8aa
.	8a	.	8dd#
=135	=135	=135	=135
2r	8g	8r	8ee
.	8f#	8dd#	8ccc
.	8g	8ee	8bb
.	8a	8r	8aa
=136	=136	=136	=136
2r	8b	2r	8.gg
.	8a	.	.
.	.	.	16aa
.	4b	.	8.ff#
.	.	.	16ee
=137	=137	=137	=137
2r	8e	2r	8ee
.	4.r	.	16bb
.	.	.	16aa
.	.	.	8bb
.	.	.	8b
=138	=138	=138	=138
8r	2r	2r	8ee
8ee	.	.	8gg
8ee	.	.	8ff#
8dd#	.	.	8aa
=139	=139	=139	=139
8ee	2r	2r	8gg
16e	.	.	4.r
16f#	.	.	.
8e	.	.	.
8ee	.	.	.
=140	=140	=140	=140
8b	2r	8r	2r
8g	.	8ee	.
8a	.	8ee	.
8f#	.	8dd#	.
=141	=141	=141	=141
8g	2r	8ee	2r
4.r	.	16b	.
.	.	16cc	.
.	.	8b	.
.	.	8bb	.
=142	=142	=142	=142
8g#	2r	{8ee	2r
8r	.	8cc}	.
8e	.	{8dd	.
8r	.	8b}	.
=143	=143	=143	=143
8a	2r	8cc	2r
8r	.	16ee	.
.	.	16dd#	.
8r	.	8ee	.
8d	.	8e	.
=144	=144	=144	=144
8c	8e	8a	8r
8r	8r	8cc	8aa
8e	8e	8b	8aa
8r	8r	8ddn	8gg#
=145	=145	=145	=145
8A	8e	8cc	8aa
8r	16a	4.r	16cc
.	16g#	.	16b
8r	8a	.	8cc
8A	8e	.	8cc
=146	=146	=146	=146
8d	8f#	2r	8cc
8r	8r	.	16dd
.	.	.	16cc
8r	8r	.	8dd
8d	8f#	.	8a
=147	=147	=147	=147
8G	8d	2r	8b
8r	16g	.	8r
.	16f#	.	.
8r	8g	.	8r
8G	8d	.	8b-
=148	=148	=148	=148
8c	8e	2r	8b-
4.r	4r	.	16cc
.	.	.	16b-
.	.	.	8cc
.	8c	.	8g
=149	=149	=149	=149
2r	8f	2r	8a
.	8r	.	16ff
.	.	.	16gg
.	8a	.	8ff
.	8r	.	8ee
=150	=150	=150	=150
2r	8b-	2r	8dd
.	8r	.	16gg
.	.	.	16aa
.	8bn	.	8gg
.	8r	.	8ff
=151	=151	=151	=151
4r	8cc	2r	8ee
.	16cc	.	8r
.	16dd	.	.
8e	8cc	.	8gg
8r	8b	.	8r
=152	=152	=152	=152
8f	8a	2r	8aa
8r	16dd	.	8r
.	16ee	.	.
8f#	8dd	.	8aa
8r	8cc	.	8r
=153	=153	=153	=153
8g	8b	2r	8r
8r	8r	.	16gg
.	.	.	16aa
8e	8b	.	8gg
8r	8r	.	8ff
=154	=154	=154	=154
8a	8cc	4r	8ee
8r	8r	.	16aa
.	.	.	16bb-
8A	8e	8cc#	8aa
8r	8r	8r	8gg
=155	=155	=155	=155
8d	4r	8a	8ff
8r	.	16dd	8r
.	.	16ee	.
8B	8d	8dd	8ff#
8r	8r	8ccn	8r
=156	=156	=156	=156
8e	2r	8b	8gg
8r	.	16ee	8r
.	.	16ffn	.
8e	.	8ee	8gg#
8r	.	8dd	8r
=157	=157	=157	=157
8f	2r	8cc	8aa
4.r	.	8dd	8bb
.	.	8ee	8ccc
.	.	8e	8r
=158	=158	=158	=158
2r	2r	8d	8r
.	.	8ee	8ccc
.	.	8dd	8bb
.	.	8cc	8aa
=159	=159	=159	=159
2r	8e	8b	8gg#
.	4.r	8cc	8aa
.	.	8dd	8bb
.	.	8e	8r
=160	=160	=160	=160
2r	2r	8A	8r
.	.	8dd	8bb
.	.	8cc	8aa
.	.	8b	8ggn
=161	=161	=161	=161
2r	8d	8a	8ff#
.	4.r	8b	8gg
.	.	8cc	8aa
.	.	8d	8r
=162	=162	=162	=162
2r	2r	8G	8r
.	.	16b	16gg
.	.	16a	16ff#
.	.	8b	8gg
.	.	8fn	8b
=163	=163	=163	=163
4r	2r	8e	8cc
.	.	8r	8ee
8B	.	8g	8dd
8r	.	8r	8ffn
=164	=164	=164	=164
8c	8g	8cc	8ee
4.r	8a	4.r	8ff#
.	8b-	.	8gg
.	8c#	.	8r
=165	=165	=165	=165
2r	8d	8a	8.gg
.	4.r	8bn	.
.	.	.	16aa
.	.	4cc	8.ff#T
.	.	.	16gg
=166	=166	=166	=166
8G	8d	8b	8gg
8r	4.r	8r	16bb
.	.	.	16aa
8r	.	8r	8bb
8G	.	8g	8b
=167	=167	=167	=167
8A	2r	8g	16cc#
.	.	.	16ee
4.r	.	4.r	16ff#
.	.	.	16gg
.	.	.	16aa
.	.	.	16b
.	.	.	16a
.	.	.	16g
=168	=168	=168	=168
8A	2r	2r	8f#
4.r	.	.	16aa
.	.	.	16gg
.	.	.	8aa
.	.	.	8cc#
=169	=169	=169	=169
16B	2r	16f#	16dd#
8.r	.	8.r	16ee
.	.	.	16dd#
.	.	.	16ee
4r	.	4r	{16ff#
.	.	.	16gg}
.	.	.	{16a
.	.	.	16b}
=170	=170	=170	=170
2r	2r	2r	{16cc
.	.	.	16ddn}
.	.	.	{16f#
.	.	.	16g}
.	.	.	{16a
.	.	.	16b}
.	.	.	{16d#
.	.	.	16e}
=171	=171	=171	=171
2r	2r	2r	16f#
.	.	.	16g
.	.	.	16a
.	.	.	16b
.	.	.	16cc#
.	.	.	16dd#
.	.	.	16ee
.	.	.	16ff#
=172	=172	=172	=172
8e	2r	8b	16gg
.	.	.	16aa
8r	.	4.r	16gg
.	.	.	16aa
8r	.	.	8bb
8d	.	.	8b
=173	=173	=173	=173
8c	8e	8b	8ee
4.r	4.r	{16cc	4.r
.	.	16b}	.
.	.	{16a	.
.	.	16g}	.
.	.	{16f#	.
.	.	16e}	.
=174	=174	=174	=174
8B	4.r	8f#	8dd#
8r	.	8r	16b
.	.	.	16cc
8r	.	8r	8b
8A	8f#	8dd#	8bb
=175	=175	=175	=175
8G	8e	8b	{8ee
8r	8r	4.r	8cc}
8G#	8e	.	{8ddn
8r	8r	.	8b}
=176	=176	=176	=176
8A	{8a	2r	4cc
4.r	8f#}	.	.
.	{8g	.	4b
.	8e}	.	.
=177	=177	=177	=177
2r	4.f#	2r	{8a
.	.	.	8b}
.	.	.	[4cc
.	8e	.	.
=178	=178	=178	=178
2r	8d#	2r	8cc]
.	4.r	.	{16ff#
.	.	.	16cc}
.	.	.	{16b
.	.	.	16a}
.	.	.	{16g
.	.	.	16f#}
=179	=179	=179	=179
2r	2r	2r	{16g
.	.	.	16d#
.	.	.	16e}
.	.	.	16g
.	.	.	16cc
.	.	.	16e
.	.	.	16dn
.	.	.	16b
=180	=180	=180	=180
2r	2r	2r	{16a
.	.	.	16e
.	.	.	16c}
.	.	.	16e
.	.	.	16a
.	.	.	16c
.	.	.	16B
.	.	.	16g
=181	=181	=181	=181
2r	2r	2r	{16fn
.	.	.	16c
.	.	.	16A}
.	.	.	16c
.	.	.	16f
.	.	.	16A
.	.	.	16G
.	.	.	16e
=182	=182	=182	=182
2r	2r	2r	16d#
.	.	.	16f#
.	.	.	16a
.	.	.	16cc
.	.	.	16ff#
.	.	.	16b
.	.	.	16a
.	.	.	16ff#
=183	=183	=183	=183
2r	2r	2r	{16g
.	.	.	16f#
.	.	.	16g}
.	.	.	16b
.	.	.	16ee
.	.	.	16a
.	.	.	16g#
.	.	.	16dd
=184	=184	=184	=184
2r	2r	2r	{16cc
.	.	.	16b
.	.	.	16cc}
.	.	.	16ee
.	.	.	16ff
.	.	.	16a
.	.	.	16gn
.	.	.	16ee
=185	=185	=185	=185
2r	2r	2r	{16dd#
.	.	.	16ee
.	.	.	16ff#
.	.	.	16gg
.	.	.	16aa}
.	.	.	16f#
.	.	.	16e
.	.	.	16cc
=186	=186	=186	=186
2r	2r	2r	{16d#
.	.	.	16e
.	.	.	16f#
.	.	.	16g
.	.	.	16a}
.	.	.	16B
.	.	.	16d#
.	.	.	16f#
=187	=187	=187	=187
2r	2r	2r	16g
.	.	.	{16cc
.	.	.	16b}
.	.	.	{16dd#
.	.	.	16ee}
.	.	.	{16gg
.	.	.	16ff#}
.	.	.	{16aa#
=188	=188	=188	=188
8r	2r	2r	8bb}
8g	.	.	8ee
8a	.	.	{16gg
.	.	.	16ff#}
8b	.	.	{16ee
.	.	.	16dd#}
=189	=189	=189	=189
8e	4.r	2r	8ee
8r	.	.	16g
.	.	.	16a
8r	.	.	8g
8e	8b	.	8gg
=190	=190	=190	=190
8A	8e	{8cc#	8gg
4.r	4.r	8a}	8r
.	.	{8b-	4cc#
.	.	8g}	.
=191	=191	=191	=191
2r	2r	{16f	8dd
.	.	16e	.
.	.	16d}	4.r
.	.	16e	.
.	.	16f	.
.	.	16a	.
.	.	16dd	.
.	.	16ff	.
=192	=192	=192	=192
8G	8d	{8b	8ff
4.r	4.r	8g}	8r
.	.	{8a-	4bn
.	.	8f}	.
=193	=193	=193	=193
2r	2r	{16e	8cc
.	.	16d	.
.	.	16c}	4.r
.	.	16d	.
.	.	16e	.
.	.	16f#	.
.	.	16g#	.
.	.	16a	.
=194	=194	=194	=194
8G#	2r	{16e	8b
.	.	16fn	.
4.r	.	16e}	4.r
.	.	16c	.
.	.	{16d	.
.	.	16e	.
.	.	16d}	.
.	.	16B	.
=195	=195	=195	=195
2r	2r	{16c	2r
.	.	16d	.
.	.	16c}	.
.	.	16A	.
.	.	{16e	.
.	.	16f	.
.	.	16e}	.
.	.	16c	.
=196	=196	=196	=196
2r	2r	{16a	2r
.	.	16b	.
.	.	16a}	.
.	.	16e	.
.	.	{16cc	.
.	.	16dd	.
.	.	16cc}	.
.	.	16a	.
=197	=197	=197	=197
8e	2r	8b-	2r
8r	.	16gg	.
.	.	16ff	.
8r	.	8gg	.
8c	.	8g	.
=198	=198	=198	=198
8f	4r	16a	2r
.	.	{16cc	.
8r	.	16b-	.
.	.	16a}	.
8d	8g	16b-	.
.	.	{16dd	.
8r	8r	16cc	.
.	.	16b-}	.
=199	=199	=199	=199
8A	8f	16cc	2r
.	.	{16ee-	.
8r	8r	16dd	.
.	.	16cc}	.
8B-	8f	16dd	.
.	.	{16ff	.
8r	8r	16een	.
.	.	16dd}	.
=200	=200	=200	=200
2r	8g	8cc	8ee
.	16B-	8r	8r
.	16A	.	.
.	8B-	8r	8r
.	8g	8cc	8ee
=201	=201	=201	=201
2r	8a	8cc	8ff
.	16A	8r	8r
.	16G	.	.
.	8A	8r	8r
.	8a	8cc	8ff
=202	=202	=202	=202
2r	8e	8cc	8gg
.	8r	16b-	8r
.	.	16a	.
.	8r	8b-	8r
.	8e	8cc	8gg
=203	=203	=203	=203
2r	8f	8cc	8aa
.	8ee	4.r	8gg
.	8dd	.	8bb-
.	8cc	.	8aa
=204	=204	=204	=204
2r	8b-	2r	8gg
.	8r	.	16ff
.	.	.	16ee
.	8bn	.	16ff
.	.	.	16aa
.	8r	.	16gg
.	.	.	16ff
=205	=205	=205	=205
2r	8cc	2r	16ee
.	.	.	{16gg
.	4.r	.	16ff
.	.	.	16ee}
.	.	.	16dd
.	.	.	16cc
.	.	.	16b-
.	.	.	16a
=206	=206	=206	=206
2r	2r	2r	16b-
.	.	.	16a
.	.	.	16b-
.	.	.	16d
.	.	.	16f
.	.	.	16b-
.	.	.	16dd
.	.	.	16ff
=207	=207	=207	=207
2r	2r	2r	{16bb-
.	.	.	16aa
.	.	.	16bb-}
.	.	.	16ff
.	.	.	16dd
.	.	.	16b-
.	.	.	16f
.	.	.	16d
=208	=208	=208	=208
2r	2r	2r	{16cc
.	.	.	16b-
.	.	.	16cc}
.	.	.	16e
.	.	.	16g
.	.	.	16cc
.	.	.	16ee
.	.	.	16gg
=209	=209	=209	=209
2r	2r	2r	{16bb-
.	.	.	16aa
.	.	.	16bb-}
.	.	.	16gg
.	.	.	16ee
.	.	.	16cc
.	.	.	16g
.	.	.	16e
=210	=210	=210	=210
2r	2r	2r	{16cc
.	.	.	16b-
.	.	.	16cc}
.	.	.	16f
.	.	.	16a
.	.	.	16cc
.	.	.	16ff
.	.	.	16gg
=211	=211	=211	=211
2r	2r	2r	{16aa
.	.	.	16gg
.	.	.	16aa}
.	.	.	16ff
.	.	.	16cc
.	.	.	16a
.	.	.	16f
.	.	.	16a
=212	=212	=212	=212
2r	2r	2r	{16cc
.	.	.	16b-
.	.	.	16cc}
.	.	.	16f#
.	.	.	16a
.	.	.	16cc
.	.	.	16ee-
.	.	.	16ff#
=213	=213	=213	=213
2r	2r	2r	{16aa
.	.	.	16gg
.	.	.	16aa}
.	.	.	16ee-
.	.	.	16cc
.	.	.	16a
.	.	.	16f#
.	.	.	16a
=214	=214	=214	=214
2r	2r	2r	{16b-
.	.	.	16a
.	.	.	16b-}
.	.	.	16g
.	.	.	16b-
.	.	.	16dd
.	.	.	16ff#
.	.	.	16aa
=215	=215	=215	=215
2r	2r	2r	{16gg
.	.	.	16ff#
.	.	.	16gg}
.	.	.	16dd
.	.	.	16b-
.	.	.	16g
.	.	.	16e-
.	.	.	16d
=216	=216	=216	=216
2r	2r	2r	{16c#
.	.	.	16B
.	.	.	16c#}
.	.	.	16en
.	.	.	16a
.	.	.	16cc#
.	.	.	16ee
.	.	.	16ffn
=217	=217	=217	=217
2r	2r	2r	{16gg
.	.	.	16ff
.	.	.	16gg}
.	.	.	16ee
.	.	.	16cc#
.	.	.	16a
.	.	.	16e
.	.	.	16c#
=218	=218	=218	=218
2r	2r	2r	{16d
.	.	.	16c#
.	.	.	16d}
.	.	.	16f
.	.	.	16a
.	.	.	16dd
.	.	.	16ff
.	.	.	16cn
=219	=219	=219	=219
2r	2r	2r	{16B-
.	.	.	16A
.	.	.	16B-}
.	.	.	16f
.	.	.	16b-
.	.	.	16dd
.	.	.	16ff
.	.	.	16A
=220	=220	=220	=220
2r	2r	2r	16G
.	.	.	16d
.	.	.	16g
.	.	.	16a
.	.	.	16b-
.	.	.	16dd
.	.	.	16ee-
.	.	.	16ff
=221	=221	=221	=221
8G	8e	2r	8cc#
4.r	8r	.	16aa
.	.	.	16gg
.	8r	.	8aa
.	8g	.	8a
=222	=222	=222	=222
2r	8f	2r	8dd
.	8r	.	8ff
.	8a	.	8ee
.	8r	.	8gg
=223	=223	=223	=223
8d	8a	2r	8ff
16dd	8r	.	8r
16cc#	.	.	.
8dd	8r	.	8r
8d	8a	.	8ff
=224	=224	=224	=224
8g	8b-	2r	8ee
8b-	4.r	.	8r
8a	.	.	8ee-
8cc	.	.	8r
=225	=225	=225	=225
8B-	8f	2r	8ee-
4.r	4.r	.	16dd
.	.	.	16cc#
.	.	.	8dd
.	.	.	8ddd
=226	=226	=226	=226
8b-	2r	2r	16gg
.	.	.	{16ff
8r	.	.	16een}
.	.	.	16gg
8a	.	.	16ff
.	.	.	{16ee
8r	.	.	16dd}
.	.	.	16ff
=227	=227	=227	=227
8g	2r	2r	16ee-
.	.	.	{16dd
4.r	.	.	16cc#}
.	.	.	16dd
.	.	.	8bb-
.	.	.	8aa
=228	=228	=228	=228
8f	2r	2r	{16ee-
.	.	.	16cc#}
4.r	.	.	8dd
.	.	.	8bb-
.	.	.	8aa
=229	=229	=229	=229
8e	2r	2r	{8dd
8r	.	.	8cc#}
8r	.	.	8gg
8d	.	.	8b-
=230	=230	=230	=230
8c#	8e	4r	8a
8r	4r	.	8gg
8d	.	8a	8ff
8G	8g	8b-	8ee
=231	=231	=231	=231
8A	8f	2r	8a
8r	4.r	.	8dd
8A	.	.	8e
8r	.	.	8cc#
=232	=232	=232	=232
8d	2r	4r	8dd
4.r	.	.	16f
.	.	.	16e
.	.	4d	8f
.	.	.	8g
=233	=233	=233	=233
2r	2r	4c#	8a
.	.	.	16e
.	.	.	16d
.	.	4cn	8e
.	.	.	8f#
=234	=234	=234	=234
2r	2r	8B	4g
.	.	16B	.
.	.	16A	.
.	.	8B	4g
.	.	8c#	.
=235	=235	=235	=235
2r	2r	8d	4f#
.	.	16A	.
.	.	16G	.
.	.	8A	4fn
.	.	8Bn	.
=236	=236	=236	=236
2r	2r	4c	8e
.	.	.	16e
.	.	.	16d
.	.	4c	8e
.	.	.	8f
=237	=237	=237	=237
2r	2r	4B	8g
.	.	.	16d
.	.	.	16c
.	.	4B-	8d
.	.	.	8e
=238	=238	=238	=238
2r	2r	8A	4f
.	.	16A	.
.	.	16G	.
.	.	8A	4f
.	.	8Bn	.
=239	=239	=239	=239
2r	2r	8c	4e
.	.	16G	.
.	.	16A	.
.	.	8G	4e-
.	.	8A	.
=240	=240	=240	=240
2r	2r	8B-	8d
.	.	8r	16b-
.	.	.	16cc
.	.	4d	8b-
.	.	.	8a
=241	=241	=241	=241
2r	2r	4e-	8g
.	.	.	16cc
.	.	.	16dd
.	.	4en	8cc
.	.	.	8b-
=242	=242	=242	=242
2r	2r	8f	4a
.	.	16f	.
.	.	16g	.
.	.	8f	4a
.	.	8e-	.
=243	=243	=243	=243
2r	2r	8d	4b-
.	.	16g	.
.	.	16a	.
.	.	8g	4bn
.	.	8f	.
=244	=244	=244	=244
2r	2r	4e	8cc
.	.	.	16cc
.	.	.	16dd
.	.	4e	8cc
.	.	.	8b-
=245	=245	=245	=245
2r	2r	4f	8a
.	.	.	16dd
.	.	.	16ee
.	.	4f#	8dd
.	.	.	8cc
=246	=246	=246	=246
2r	2r	8g	4b-
.	.	16g	.
.	.	16a	.
.	.	8g	4bn
.	.	8fn	.
=247	=247	=247	=247
2r	2r	8e	4cc
.	.	16a	.
.	.	16b-	.
.	.	8a	4cc#
.	.	8g	.
=248	=248	=248	=248
2r	2r	8f	8dd
.	.	4.r	16a
.	.	.	16b-
.	.	.	8a
.	.	.	8aa
=249	=249	=249	=249
2r	2r	8f#	{8dd
.	.	8r	8b-}
.	.	8d	{8cc
.	.	8r	8a}
=250	=250	=250	=250
2r	2r	8g	{16b-
.	.	.	16a
.	.	4.r	16g
.	.	.	16a
.	.	.	8b-}
.	.	.	8gg
=251	=251	=251	=251
2r	4r	8e	{8cc
.	.	8r	8a}
.	8c	8e	{8b-
.	8r	8r	8g}
=252	=252	=252	=252
2r	2r	8f	8a
.	.	16a	16cc
.	.	16g	16b-
.	.	8f	8cc
.	.	8e-	8r
=253	=253	=253	=253
2r	2r	8d	8r
.	.	8b-	8ff
.	.	8c	8r
.	.	8a	8ee-
=254	=254	=254	=254
2r	2r	8B-	8r
.	.	16b-	16dd
.	.	16a	16cc
.	.	8g	8dd
.	.	8f	8r
=255	=255	=255	=255
2r	2r	8e	8r
.	.	8cc	8gg
.	.	8d	8r
.	.	8bn	8ff
=256	=256	=256	=256
2r	2r	8c	8r
.	.	16cc	16ee
.	.	16dd	16ff
.	.	8ee	8gg
.	.	8dd	8aa
=257	=257	=257	=257
8A	8e	8cc#	{8bb-
4.r	8r	8r	8aa}
.	8a	8cc#	{8aa
.	8r	8r	8gg}
=258	=258	=258	=258
4r	8d	8a	{8gg
.	8r	8r	8ff}
8c	8a	8a	{8ff
8r	8r	8r	8ee}
=259	=259	=259	=259
8B	2r	8g#	16dd
.	.	.	16ee
4.r	.	4.r	16dd
.	.	.	16ee
.	.	.	8ff
.	.	.	8A
=260	=260	=260	=260
2r	2r	2r	8.G#T
.	.	.	16ff
.	.	.	16ee
.	.	.	16dd
.	.	.	16cc
.	.	.	16b
=261	=261	=261	=261
2r	2r	2r	{16cc
.	.	.	16a
.	.	.	16f}
.	.	.	16ee
.	.	.	16dd
.	.	.	16cc
.	.	.	16b
.	.	.	16a
=262	=262	=262	=262
2r	2r	8e	8g#
.	.	4.r	16bb
.	.	.	16aa
.	.	.	8bb
.	.	.	8dd
=263	=263	=263	=263
2r	2r	8e	{16cc
.	.	.	16bb
.	.	4.r	16aa}
.	.	.	16gg#
.	.	.	8aa
.	.	.	8cc
=264	=264	=264	=264
2r	2r	4e	{8b
.	.	.	8aa}
.	.	8r	8ggn
.	.	8d	8b-
=265	=265	=265	=265
2r	2r	16c#	16a
.	.	8.r	{16gg
.	.	.	16ff
.	.	.	16ee}
.	.	8dd	8ff
.	.	8cn	8a
=266	=266	=266	=266
2r	2r	8B	8g
.	.	8dd	8ff
.	.	8cc	8ee
.	.	8B	8g
=267	=267	=267	=267
2r	2r	16A	16f
.	.	8.r	{16ee
.	.	.	16dd
.	.	.	16cc}
.	.	8r	8dd
.	.	8A	8f
=268	=268	=268	=268
2r	2r	8G#	{8e
.	.	8r	8dd}
.	.	8a	8cc
.	.	8A	8e
=269	=269	=269	=269
2r	2r	8d	8f
.	.	8r	16b-
.	.	.	16a
.	.	8r	8b-
.	.	8f	8dd
=270	=270	=270	=270
2r	2r	{8f	{8dd
.	.	8b-}	8ff}
.	.	{8b-	{8ff
.	.	8dd}	8bb-}
=271	=271	=271	=271
2r	8e	8dd	8gg#
.	4.r	8r	{16ffn
.	.	.	16ee}
.	.	8cc	8aa
.	.	{16bn	8r
.	.	16a}	.
=272	=272	=272	=272
2r	8r	8b	8aa
.	16e	8r	8r
.	16f	.	.
.	8e	8r	8r
.	8e	8dd	8gg#
=273	=273	=273	=273
2r	8a	8cc	8aa
.	8f	8r	8r
.	8g	8cc#	8ee
.	8e	8r	8r
=274	=274	=274	=274
2r	8f	8dd	8aa
.	8d	8r	8r
.	8e	8cc#	8gg
.	8A	8r	8r
=275	=275	=275	=275
2r	8d	{8a	{8ff
.	4.r	8g}	8ee}
.	.	{8g	{8ee
.	.	8f}	8dd}
=276	=276	=276	=276
2r	2r	8f	8dd
.	.	16a	8r
.	.	16g	.
.	.	8f	8r
.	.	8e	8cc
=277	=277	=277	=277
4.r	2r	4d	{16b-
.	.	.	16cc
.	.	.	16dd
.	.	.	16ee
.	.	4r	8ff}
8d	.	.	8a
=278	=278	=278	=278
8d	8r	8r	8g#
8B	8g#	8dd	8ff
8c	8a	8cc	8ee
8d	8r	8r	8dd
=279	=279	=279	=279
8e	2r	2r	8.cc
8d	.	.	.
.	.	.	16dd
4e	.	.	8.b
.	.	.	16a
=280	=280	=280	=280
8a	2r	2r	8a
16A	.	.	4.r
16B	.	.	.
8A	.	.	.
8a	.	.	.
=281	=281	=281	=281
8e	2r	8cc	8aa
8c	.	8r	8r
8d	.	8b	8gg#
8B	.	8r	8r
=282	=282	=282	=282
8c	8e	8a	8aa
4.r	4.r	4.r	16a
.	.	.	16b
.	.	.	8a
.	.	.	8aa
=283	=283	=283	=283
8c	8e	8a	8ee
8r	8r	4.r	8cc
8B	8g#	.	8dd
8r	8r	.	8b
=284	=284	=284	=284
8A	8a	2r	8cc
8r	8f	.	8r
8gn	4r	.	8cc#
8e	.	.	8r
=285	=285	=285	=285
8A	8f	8dd	8aa
4.r	8r	8r	8ff
.	8e	8cc#	8gg
.	8r	8r	8ee
=286	=286	=286	=286
2r	16d	16a	32ff
.	.	.	32gg
.	8.r	8.r	32aa
.	.	.	32gg
.	.	.	32ff
.	.	.	32ee
.	.	.	32dd
.	.	.	32cc#
.	4r	4r	32dd
.	.	.	32ee
.	.	.	32ff
.	.	.	32ee
.	.	.	32dd
.	.	.	32ccn
.	.	.	32b
.	.	.	32a
=287	=287	=287	=287
2r	2r	2r	32b
.	.	.	32cc
.	.	.	32dd
.	.	.	32cc
.	.	.	32b
.	.	.	32a
.	.	.	32g#
.	.	.	32f#
.	.	.	32g#
.	.	.	32a
.	.	.	32b
.	.	.	32a
.	.	.	32g#
.	.	.	32f#
.	.	.	32e
.	.	.	32d
=288	=288	=288	=288
8r	8r	8r	8c
8A	8e	8cc	8aa
4r	8e	8b	8aa
.	8e	8dd	8gg#
=289	=289	=289	=289
2A	2e	2cc#	2aa
==	==	==	==
*-	*-	*-	*-
